!!!SOCIAL_FUNCTION:	love songs
!!!PDT:	1918

Specific Region: Dakotas, Minnesota, Montana, Nebraska
!!!REG: Dakotas and Montana
!!!LING_GROUP: Siouan
!!!LANG: Tone
!!!OTL@ENG: Love Song (b)
!!!ONM: No. 234
**kern
*Imale
*clefG2
*k[f#c#g#d#a#]
*M2/4
*MM63
[2A#
=2
8A#]
16g#
16g#
8a#
8b
=3||
*M3/4
4.g#
16d#
16d#
8g#
8d#
=4
4.c#
16B
16B
8c#
8B
*clefF4
=5||
*M2/4
[2G#
=6
8G#]
16c#
16c#
8d#
8d#
=7
4.c#
16B
16G#
=8
4B
4B
=9
[2G#
=10
4G#]
4r
=11
[2G#
=12
8G#]
16d#
16d#
8g#
16.g#
32d#
=13||
*M3/4
4d#
4.d#
8c#
=14
8d#
8d#
4B
4B
=15||
*M2/4
[2G#
=16
8G#]
16c#
16c#
8d#
8d#
=17
4.c#
16B
16G#
=18
4B
4B
=19
[2G#
=20
2G#]
==
*-
!!!CNT: Native American -- Sioux
!!!MRD: 1911/07//-1914///
!!!OCL: Frances Densmore
!!!YOR1: Teton Sioux Music, Bulletin 61,
!!!YOR2: Bureau of American Ethnology, Smithsonian Institution
!!!PPR: Government Printing Office
!!!PPP: Washington, D.C.
!!!PDT: 1918///
!!!ENC: Craig Stuart Sapp
!!!END: 2002/03/25/
!!!EEV: 2002/03/31/
!!!AGN: Love Song
!!!MPN@@SIO: Malipi'ya-to
!!!MPN@ENG: Blue Cloud
!!!TXO: Santee Sioux
!!!MLC: Sisseton, South Dakota, United States of America
!!!ARL: 45.6/-97.1:
!!!catalog: Catalogue No. 661
!!!PPG: 511
!!!EFL: 239/245
!!!VTS: 3886512505
